image/icon/GiantCamp.svg

<!--version="1.0" encoding="UTF-8"--><svg version="1.1" id="Layer_1" xmlns="http://www.w3.org/2000/svg" width="42" height="41" xml:space="preserve"><g id="PathID_66" transform="matrix(1, 0, 0, 1, 21, 20.25)"><path style="fill: rgb(255, 255, 255); fill-opacity: 1;" d="M5.5-15.65q1.3 1.3 3 5.55l-.6.85q-.55.95-.45 1.6.2 1.45 1.3 3.85Q5.4-1.1 4.55 7.35q-.1.85.65 2.6.7 1.75 1.4 2.35 1.6 1.5 3.85.9 2.4-.65 3.95-3.4 1.55-2.6 2.05-6.7.45-3.5.05-6.85l-.85-5q-.4-1.95-.2-2.15.25-.3 1.2 1.45Q17.7-7.4 18.4-4.3q.9 3.8.6 8.2-.4 5.05-2.3 8.75-2.05 4.2-5.5 5.25L8 18q-1.5-.4-2.8-1.4-1.65-1.4-3.25-3.7l-1.3-2L2-3.4l-1.3-2 1.35-2.35L6.7-8.2l-2.4-2.55h-8.6L-6.75-8.2l4.7.45L-.7-5.4l-1.35 2L-.7 10.9q-1.85 3.45-4.55 5.7Q-6.5 17.6-8 18l-3.25-.1q-1.6-.5-3-1.85-1.5-1.4-2.45-3.4-1.9-3.7-2.25-8.75-.35-4.4.55-8.2.7-3.1 1.75-5.15.9-1.75 1.2-1.45.2.2-.2 2.15l-.85 5q-.4 3.35.05 6.85.5 4.1 2.05 6.7 1.55 2.75 3.95 3.4 2.25.6 3.85-.9.7-.6 1.4-2.35.7-1.8.6-2.6-.25-3.2-1.05-5.85-1.15-3.75-3.1-5.3 1.15-2.8 1.3-3.85.1-.65-.45-1.6l-.6-.85 1-2.3 1.95-3.25Q-4-17.2-1.9-18.2l.6.3 1.3.55q.95-.3 1.9-.85l1.25.7 2.35 1.85"/><path style="fill: rgb(0, 0, 0); fill-opacity: 1;" d="m3.15-17.5-1.25-.7q-.95.55-1.9.85l-1.3-.55-.6-.3q-2.1 1-3.65 2.55L-7.5-12.4l-1 2.3.6.85q.55.95.45 1.6-.15 1.05-1.3 3.85 1.95 1.55 3.1 5.3.8 2.65 1.05 5.85.1.8-.6 2.6-.7 1.75-1.4 2.35-1.6 1.5-3.85.9-2.4-.65-3.95-3.4-1.55-2.6-2.05-6.7-.45-3.5-.05-6.85l.85-5q.4-1.95.2-2.15-.3-.3-1.2 1.45Q-17.7-7.4-18.4-4.3q-.9 3.8-.55 8.2.35 5.05 2.25 8.75.95 2 2.45 3.4 1.4 1.35 3 1.85L-8 18q1.5-.4 2.75-1.4 2.7-2.25 4.55-5.7L-2.05-3.4l1.35-2-1.35-2.35-4.7-.45 2.45-2.55h8.6L6.7-8.2l-4.65.45L.7-5.4l1.3 2L.65 10.9l1.3 2q1.6 2.3 3.25 3.7 1.3 1 2.8 1.4l3.2-.1q3.45-1.05 5.5-5.25 1.9-3.7 2.3-8.75.3-4.4-.6-8.2-.7-3.1-1.75-5.15-.95-1.75-1.2-1.45-.2.2.2 2.15l.85 5q.4 3.35-.05 6.85-.5 4.1-2.05 6.7-1.55 2.75-3.95 3.4-2.25.6-3.85-.9-.7-.6-1.4-2.35-.75-1.75-.65-2.6Q5.4-1.1 8.75-3.8q-1.1-2.4-1.3-3.85-.1-.65.45-1.6l.6-.85q-1.7-4.25-3-5.55L3.15-17.5m1.05-1.55 2.7 2.15q1.55 1.6 3.4 6.2l.45 1.1-.8.9-.6 1 1.2 3.25.55 1.35-1.15.95q-1.3 1-2.2 3.6-.9 2.6-1.25 6.15 0 .7 2.75 1.55 2.85.9 3.4-.2h.05V8.9q1.4-2.35 1.85-6 .4-3.25 0-6.3l-.8-4.7q-.35-1.75-.35-2.4 0-1.05.7-1.7.55-.55 1.4-.55 2.85 0 4.8 8.1.95 4.2.6 8.95-.4 5.4-2.45 9.35-2.5 4.95-6.65 6.2l-2.35.4q-3 0-5.5-2.05Q2.7 17.15 0 17.15t-4 1.05q-2.45 2.05-5.45 2.05l-2.4-.4q-1.95-.6-3.7-2.2-1.75-1.65-2.9-3.95-2.05-4-2.45-9.4-.4-4.8.6-8.9.55-2.65 1.5-4.8 1.55-3.35 3.3-3.35.75 0 1.4.55.7.65.7 1.7 0 .65-.35 2.4l-.85 4.7q-.35 3.1.05 6.3.5 3.7 1.85 6v.05q.6 1.1 3.45.2 2.75-.85 2.75-1.5-.8-7.7-3.45-9.8l-1.2-.95.6-1.35Q-9.5-6.85-9.4-7.7l-.6-1-.75-.9.45-1.1q1.85-4.6 3.4-6.2 1.75-1.8 4.15-2.95l.95-.4 1.8.95 1.8-.95.95.4 1.45.8"/></g></svg>

<?xml version="1.0" encoding="UTF-8"?>
<svg version="1.1" id="Layer_1" xmlns="http://www.w3.org/2000/svg" xmlns:xlink="http://www.w3.org/1999/xlink" width="42px" height="41px" xml:space="preserve">
<g id="PathID_66" transform="matrix(1, 0, 0, 1, 21, 20.25)">
<path style="fill:#FFFFFF;fill-opacity:1" d="M5.5 -15.65Q6.8 -14.35 8.5 -10.1L7.9 -9.25Q7.35 -8.3 7.45 -7.65Q7.65 -6.2 8.75 -3.8Q5.4 -1.1 4.55 7.35Q4.45 8.2 5.2 9.95Q5.9 11.7 6.6 12.3Q8.2 13.8 10.45 13.2Q12.85 12.55 14.4 9.8Q15.95 7.2 16.45 3.1Q16.9 -0.4 16.5 -3.75L15.65 -8.75Q15.25 -10.7 15.45 -10.9Q15.7 -11.2 16.65 -9.45Q17.7 -7.4 18.4 -4.3Q19.3 -0.5 19 3.9Q18.6 8.95 16.7 12.65Q14.65 16.85 11.2 17.9L8 18Q6.5 17.6 5.2 16.6Q3.55 15.2 1.95 12.9L0.65 10.9L2 -3.4L0.7 -5.4L2.05 -7.75L6.7 -8.2L4.3 -10.75L-4.3 -10.75L-6.75 -8.2L-2.05 -7.75L-0.7 -5.4L-2.05 -3.4L-0.7 10.9Q-2.55 14.35 -5.25 16.6Q-6.5 17.6 -8 18L-11.25 17.9Q-12.85 17.4 -14.25 16.05Q-15.75 14.65 -16.7 12.65Q-18.6 8.95 -18.95 3.9Q-19.3 -0.5 -18.4 -4.3Q-17.7 -7.4 -16.65 -9.45Q-15.75 -11.2 -15.45 -10.9Q-15.25 -10.7 -15.65 -8.75L-16.5 -3.75Q-16.9 -0.4 -16.45 3.1Q-15.95 7.2 -14.4 9.8Q-12.85 12.55 -10.45 13.2Q-8.2 13.8 -6.6 12.3Q-5.9 11.7 -5.2 9.95Q-4.5 8.15 -4.6 7.35Q-4.85 4.15 -5.65 1.5Q-6.8 -2.25 -8.75 -3.8Q-7.6 -6.6 -7.45 -7.65Q-7.35 -8.3 -7.9 -9.25L-8.5 -10.1L-7.5 -12.4L-5.55 -15.65Q-4 -17.2 -1.9 -18.2L-1.3 -17.9L0 -17.35Q0.95 -17.65 1.9 -18.2L3.15 -17.5L5.5 -15.65"/>
<path style="fill:#000000;fill-opacity:1" d="M3.15 -17.5L1.9 -18.2Q0.95 -17.65 0 -17.35L-1.3 -17.9L-1.9 -18.2Q-4 -17.2 -5.55 -15.65L-7.5 -12.4L-8.5 -10.1L-7.9 -9.25Q-7.35 -8.3 -7.45 -7.65Q-7.6 -6.6 -8.75 -3.8Q-6.8 -2.25 -5.65 1.5Q-4.85 4.15 -4.6 7.35Q-4.5 8.15 -5.2 9.95Q-5.9 11.7 -6.6 12.3Q-8.2 13.8 -10.45 13.2Q-12.85 12.55 -14.4 9.8Q-15.95 7.2 -16.45 3.1Q-16.9 -0.4 -16.5 -3.75L-15.65 -8.75Q-15.25 -10.7 -15.45 -10.9Q-15.75 -11.2 -16.65 -9.45Q-17.7 -7.4 -18.4 -4.3Q-19.3 -0.5 -18.95 3.9Q-18.6 8.95 -16.7 12.65Q-15.75 14.65 -14.25 16.05Q-12.85 17.4 -11.25 17.9L-8 18Q-6.5 17.6 -5.25 16.6Q-2.55 14.35 -0.7 10.9L-2.05 -3.4L-0.7 -5.4L-2.05 -7.75L-6.75 -8.2L-4.3 -10.75L4.3 -10.75L6.7 -8.2L2.05 -7.75L0.7 -5.4L2 -3.4L0.65 10.9L1.95 12.9Q3.55 15.2 5.2 16.6Q6.5 17.6 8 18L11.2 17.9Q14.65 16.85 16.7 12.65Q18.6 8.95 19 3.9Q19.3 -0.5 18.4 -4.3Q17.7 -7.4 16.65 -9.45Q15.7 -11.2 15.45 -10.9Q15.25 -10.7 15.65 -8.75L16.5 -3.75Q16.9 -0.4 16.45 3.1Q15.95 7.2 14.4 9.8Q12.85 12.55 10.45 13.2Q8.2 13.8 6.6 12.3Q5.9 11.7 5.2 9.95Q4.45 8.2 4.55 7.35Q5.4 -1.1 8.75 -3.8Q7.65 -6.2 7.45 -7.65Q7.35 -8.3 7.9 -9.25L8.5 -10.1Q6.8 -14.35 5.5 -15.65L3.15 -17.5M4.2 -19.05L6.9 -16.9Q8.45 -15.3 10.3 -10.7L10.75 -9.6L9.95 -8.7L9.35 -7.7L10.55 -4.45L11.1 -3.1L9.95 -2.15Q8.65 -1.15 7.75 1.45Q6.85 4.05 6.5 7.6Q6.5 8.3 9.25 9.15Q12.1 10.05 12.65 8.95L12.7 8.95L12.7 8.9Q14.1 6.55 14.55 2.9Q14.95 -0.35 14.55 -3.4L13.75 -8.1Q13.4 -9.85 13.4 -10.5Q13.4 -11.55 14.1 -12.2Q14.65 -12.75 15.5 -12.75Q18.35 -12.75 20.3 -4.65Q21.25 -0.45 20.9 4.3Q20.5 9.7 18.45 13.65Q15.95 18.6 11.8 19.85L9.45 20.25Q6.45 20.25 3.95 18.2Q2.7 17.15 0 17.15Q-2.7 17.15 -4 18.2Q-6.45 20.25 -9.45 20.25L-11.85 19.85Q-13.8 19.25 -15.55 17.65Q-17.3 16 -18.45 13.7Q-20.5 9.7 -20.9 4.3Q-21.3 -0.5 -20.3 -4.6Q-19.75 -7.25 -18.8 -9.4Q-17.25 -12.75 -15.5 -12.75Q-14.75 -12.75 -14.1 -12.2Q-13.4 -11.55 -13.4 -10.5Q-13.4 -9.85 -13.75 -8.1L-14.6 -3.4Q-14.95 -0.3 -14.55 2.9Q-14.05 6.6 -12.7 8.9L-12.7 8.95Q-12.1 10.05 -9.25 9.15Q-6.5 8.3 -6.5 7.65Q-7.3 -0.05 -9.95 -2.15L-11.15 -3.1L-10.55 -4.45Q-9.5 -6.85 -9.4 -7.7L-10 -8.7L-10.75 -9.6L-10.3 -10.7Q-8.45 -15.3 -6.9 -16.9Q-5.15 -18.7 -2.75 -19.85L-1.8 -20.25L0 -19.3L1.8 -20.25L2.75 -19.85L4.2 -19.05"/>
</g>
</svg>
